src/images/svg/symbols/markets-stocks-and-indices/american-stocks/stocks-microsoft-corporation.svg

<svg width="32" height="32" viewBox="0 0 32 32" fill="none" xmlns="http://www.w3.org/2000/svg">
<path d="M0 16C0 7.16344 7.16344 0 16 0C24.8366 0 32 7.16344 32 16C32 24.8366 24.8366 32 16 32C7.16344 32 0 24.8366 0 16Z" fill="#F2F3F4"/>
<path d="M15.7419 8H8V15.7419H15.7419V8Z" fill="#F05126"/>
<path d="M23.9997 8H16.2578V15.7419H23.9997V8Z" fill="#7EBC42"/>
<path d="M15.7419 16.2578H8V23.9997H15.7419V16.2578Z" fill="#2A9FDA"/>
<path d="M23.9997 16.2578H16.2578V23.9997H23.9997V16.2578Z" fill="#FDB716"/>
</svg>

<svg width="32" height="32" fill="none" xmlns="http://www.w3.org/2000/svg"><path d="M0 16C0 7.163 7.163 0 16 0s16 7.163 16 16-7.163 16-16 16S0 24.837 0 16Z" fill="#F2F3F4"/><path d="M15.742 8H8v7.742h7.742V8Z" fill="#F05126"/><path d="M24 8h-7.742v7.742H24V8Z" fill="#7EBC42"/><path d="M15.742 16.258H8V24h7.742v-7.742Z" fill="#2A9FDA"/><path d="M24 16.258h-7.742V24H24v-7.742Z" fill="#FDB716"/></svg>
